;Generated with Cura_SteamEngine 13.06.4
M109 T0 S230.000000
T0
;Sliced at: Thu 04 Jul 2013 01:31:28
;Basic settings: Layer height: 0.25 Walls: 1 Fill: 50
;Print time: #P_TIME#
;Filament used: #F_AMNT#m #F_WGHT#g
;Filament cost: #F_COST#
G21        ;metric values
G90        ;absolute positioning
M107       ;start with the fan off
G28 X0 Y0  ;move X/Y to min endstops
G28 Z0     ;move Z to min endstops

G92 E0                  ;zero the extruded length
G1 F200 E3              ;extrude 3mm of feed stock
G92 E0                  ;zero the extruded length again
G1 F9000
M117 Printing...

;total_layers=12
;LAYER:0
M107
G0 F1800 X51.05 Y70.05 Z0.30
;TYPE:SKIRT
G1 F1200 X51.20 Y69.96 E0.00316
G1 X52.91 Y68.95 E0.03930
G1 X53.04 Y68.88 E0.04202
G1 X54.97 Y67.93 E0.08102
G1 X55.11 Y67.88 E0.08372
G1 X56.95 Y67.15 E0.11961
G1 X57.11 Y67.10 E0.12266
G1 X58.84 Y66.59 E0.15543
G1 X58.98 Y66.56 E0.15812
G1 X60.71 Y66.20 E0.19019
G1 X60.84 Y66.18 E0.19255
G1 X62.90 Y65.89 E0.23030
G1 X63.10 Y65.88 E0.23395
G1 X64.17 Y65.85 E0.25345
G1 X64.27 Y65.85 E0.25527
G1 X66.29 Y65.89 E0.29196
G1 X66.36 Y65.90 E0.29329
G1 X68.17 Y66.01 E0.32627
G1 X68.35 Y66.03 E0.32947
G1 X69.43 Y66.20 E0.34942
G1 X69.57 Y66.22 E0.35197
G1 X71.82 Y66.75 E0.39398
G1 X72.00 Y66.81 E0.39730
G1 X74.19 Y67.55 E0.43930
G1 X74.33 Y67.61 E0.44209
G1 X75.79 Y68.24 E0.47108
G1 X75.91 Y68.29 E0.47338
G1 X77.26 Y69.00 E0.50108
G1 X77.35 Y69.04 E0.50282
G1 X78.01 Y69.43 E0.51671
G1 X78.09 Y69.48 E0.51843
G1 X79.45 Y70.37 E0.54807
G1 X79.56 Y70.44 E0.55035
G1 X80.89 Y71.45 E0.58080
G1 X81.00 Y71.54 E0.58324
G1 X82.31 Y72.68 E0.61490
G1 X82.41 Y72.78 E0.61744
G1 X83.52 Y73.91 E0.64620
G1 X83.61 Y74.00 E0.64850
G1 X84.68 Y75.25 E0.67842
G1 X84.77 Y75.36 E0.68088
G1 X85.75 Y76.68 E0.71080
G1 X85.82 Y76.79 E0.71323
G1 X86.71 Y78.18 E0.74319
G1 X86.78 Y78.29 E0.74560
G1 X87.57 Y79.75 E0.77565
G1 X87.62 Y79.87 E0.77809
G1 X88.31 Y81.38 E0.80827
G1 X88.36 Y81.50 E0.81065
G1 X88.94 Y83.07 E0.84105
G1 X88.98 Y83.20 E0.84345
G1 X89.46 Y84.82 E0.87412
G1 X89.49 Y84.94 E0.87646
G1 X89.85 Y86.61 E0.90744
G1 X89.88 Y86.73 E0.90972
G1 X89.92 Y86.99 E0.91448
G1 X89.98 Y86.33 E0.92655
G1 X89.99 Y86.21 E0.92879
G1 X90.36 Y83.85 E0.97204
G1 X90.39 Y83.73 E0.97428
G1 X90.58 Y82.88 E0.99018
G1 X90.61 Y82.75 E0.99265
G1 X91.29 Y80.50 E1.03530
G1 X91.36 Y80.31 E1.03891
G1 X91.98 Y78.84 E1.06803
G1 X92.04 Y78.72 E1.07044
G1 X93.35 Y76.14 E1.12296
G1 X93.45 Y75.97 E1.12646
G1 X94.08 Y74.99 E1.14778
G1 X94.15 Y74.89 E1.14990
G1 X95.14 Y73.56 E1.18006
G1 X95.20 Y73.48 E1.18183
G1 X95.77 Y72.78 E1.19816
G1 X95.81 Y72.73 E1.19938
G1 X96.35 Y72.12 E1.21431
G1 X96.41 Y72.05 E1.21593
G1 X97.58 Y70.85 E1.24647
G1 X97.70 Y70.74 E1.24935
G1 X99.58 Y69.11 E1.29451
G1 X99.72 Y68.99 E1.29792
G1 X101.47 Y67.76 E1.33680
G1 X101.64 Y67.65 E1.34039
G1 X103.44 Y66.65 E1.37779
G1 X103.56 Y66.58 E1.38034
G1 X105.51 Y65.68 E1.41934
G1 X105.68 Y65.61 E1.42260
G1 X107.90 Y64.82 E1.46551
G1 X108.09 Y64.77 E1.46905
G1 X110.22 Y64.26 E1.50883
G1 X110.39 Y64.22 E1.51197
G1 X112.89 Y63.86 E1.55788
G1 X113.10 Y63.85 E1.56178
G1 X114.18 Y63.81 E1.58143
G1 X114.28 Y63.81 E1.58323
G1 X116.30 Y63.86 E1.61992
G1 X116.38 Y63.87 E1.62124
G1 X118.19 Y63.98 E1.65423
G1 X118.36 Y64.00 E1.65742
G1 X119.43 Y64.17 E1.67710
G1 X119.54 Y64.19 E1.67912
G1 X121.07 Y64.52 E1.70759
G1 X121.22 Y64.56 E1.71033
G1 X123.43 Y65.23 E1.75238
G1 X123.61 Y65.29 E1.75573
G1 X125.77 Y66.19 E1.79823
G1 X125.91 Y66.26 E1.80108
G1 X127.31 Y66.98 E1.82965
G1 X127.45 Y67.06 E1.83260
G1 X129.50 Y68.36 E1.87667
G1 X129.63 Y68.45 E1.87959
G1 X130.91 Y69.43 E1.90892
G1 X131.01 Y69.51 E1.91125
G1 X132.32 Y70.65 E1.94284
G1 X132.42 Y70.75 E1.94534
G1 X133.53 Y71.87 E1.97409
G1 X133.62 Y71.97 E1.97644
G1 X134.70 Y73.22 E2.00638
G1 X134.78 Y73.32 E2.00878
G1 X135.76 Y74.64 E2.03873
G1 X135.84 Y74.76 E2.04117
G1 X136.72 Y76.15 E2.07113
G1 X136.79 Y76.26 E2.07354
G1 X137.58 Y77.72 E2.10360
G1 X137.64 Y77.84 E2.10603
G1 X138.32 Y79.35 E2.13622
G1 X138.37 Y79.47 E2.13860
G1 X138.95 Y81.04 E2.16899
G1 X138.99 Y81.17 E2.17139
G1 X139.47 Y82.79 E2.20206
G1 X139.50 Y82.91 E2.20440
G1 X139.87 Y84.58 E2.23539
G1 X139.89 Y84.70 E2.23766
G1 X140.10 Y86.10 E2.26336
G1 X140.12 Y86.33 E2.26757
G1 X140.18 Y88.83 E2.31306
G1 X140.18 Y88.91 E2.31442
G1 X140.15 Y91.00 E2.35247
G1 X140.15 Y91.13 E2.35487
G1 X140.04 Y92.39 E2.37784
G1 X140.01 Y92.59 E2.38151
G1 X139.60 Y94.67 E2.41998
G1 X139.57 Y94.82 E2.42284
G1 X139.00 Y96.82 E2.46054
G1 X138.95 Y96.98 E2.46360
G1 X138.15 Y99.07 E2.50425
G1 X138.08 Y99.24 E2.50752
G1 X137.17 Y101.06 E2.54448
G1 X137.09 Y101.20 E2.54747
G1 X135.99 Y103.00 E2.58583
G1 X135.89 Y103.14 E2.58890
G1 X134.63 Y104.83 E2.62720
G1 X134.53 Y104.96 E2.63025
G1 X133.12 Y106.53 E2.66853
G1 X133.01 Y106.65 E2.67159
G1 X131.47 Y108.09 E2.70985
G1 X131.34 Y108.20 E2.71292
G1 X129.68 Y109.50 E2.75123
G1 X129.54 Y109.60 E2.75431
G1 X127.76 Y110.74 E2.79273
G1 X127.61 Y110.83 E2.79583
G1 X125.73 Y111.81 E2.83446
G1 X125.57 Y111.89 E2.83760
G1 X123.59 Y112.70 E2.87651
G1 X123.43 Y112.76 E2.87969
G1 X121.39 Y113.38 E2.91838
G1 X121.29 Y113.41 E2.92036
G1 X120.19 Y113.67 E2.94090
G1 X120.06 Y113.70 E2.94319
G1 X118.35 Y114.00 E2.97486
G1 X118.19 Y114.02 E2.97768
G1 X117.26 Y114.10 E2.99470
G1 X117.14 Y114.11 E2.99690
G1 X115.09 Y114.15 E3.03404
G1 X115.01 Y114.15 E3.03553
G1 X113.07 Y114.11 E3.07073
G1 X112.94 Y114.11 E3.07313
G1 X111.72 Y114.00 E3.09540
G1 X111.54 Y113.97 E3.09869
G1 X109.44 Y113.57 E3.13746
G1 X109.26 Y113.53 E3.14083
G1 X106.85 Y112.82 E3.18647
G1 X106.68 Y112.76 E3.18972
G1 X105.00 Y112.09 E3.22274
G1 X104.91 Y112.05 E3.22456
G1 X104.10 Y111.68 E3.24065
G1 X104.02 Y111.63 E3.24235
G1 X102.46 Y110.81 E3.27446
G1 X102.34 Y110.75 E3.27688
G1 X100.86 Y109.83 E3.30851
G1 X100.77 Y109.76 E3.31054
G1 X100.03 Y109.24 E3.32690
G1 X99.94 Y109.17 E3.32905
G1 X98.62 Y108.11 E3.35977
G1 X98.49 Y108.00 E3.36297
G1 X96.67 Y106.23 E3.40905
G1 X96.56 Y106.11 E3.41205
G1 X95.43 Y104.79 E3.44352
G1 X95.34 Y104.69 E3.44595
G1 X94.32 Y103.32 E3.47702
G1 X94.25 Y103.21 E3.47941
G1 X93.33 Y101.78 E3.51030
G1 X93.26 Y101.65 E3.51289
G1 X92.47 Y100.18 E3.54332
G1 X92.41 Y100.07 E3.54556
G1 X91.75 Y98.62 E3.57443
G1 X91.70 Y98.49 E3.57708
G1 X90.94 Y96.41 E3.61730
G1 X90.89 Y96.25 E3.62025
G1 X90.50 Y94.81 E3.64744
G1 X90.47 Y94.68 E3.64981
G1 X90.18 Y93.21 E3.67698
G1 X90.16 Y93.09 E3.67917
G1 X90.14 Y92.91 E3.68247
G1 X90.14 Y93.03 E3.68462
G1 X90.13 Y93.16 E3.68700
G1 X90.03 Y94.42 E3.70999
G1 X90.00 Y94.62 E3.71368
G1 X89.59 Y96.70 E3.75214
G1 X89.56 Y96.85 E3.75498
G1 X88.99 Y98.85 E3.79269
G1 X88.94 Y99.01 E3.79575
G1 X88.14 Y101.10 E3.83643
G1 X88.06 Y101.27 E3.83971
G1 X87.16 Y103.09 E3.87663
G1 X87.08 Y103.23 E3.87958
G1 X85.97 Y105.03 E3.91796
G1 X85.88 Y105.17 E3.92102
G1 X84.62 Y106.86 E3.95937
G1 X84.51 Y106.99 E3.96243
G1 X83.11 Y108.57 E4.00071
G1 X82.99 Y108.69 E4.00378
G1 X81.46 Y110.12 E4.04203
G1 X81.33 Y110.23 E4.04507
G1 X79.67 Y111.53 E4.08337
G1 X79.53 Y111.63 E4.08645
G1 X77.75 Y112.77 E4.12488
G1 X77.60 Y112.86 E4.12799
G1 X75.72 Y113.84 E4.16662
G1 X75.56 Y113.92 E4.16976
G1 X73.58 Y114.73 E4.20868
G1 X73.41 Y114.79 E4.21187
G1 X71.37 Y115.41 E4.25069
G1 X71.25 Y115.44 E4.25298
G1 X69.71 Y115.80 E4.28169
G1 X69.55 Y115.83 E4.28454
G1 X67.85 Y116.08 E4.31575
G1 X67.72 Y116.09 E4.31823
G1 X67.20 Y116.13 E4.32767
G1 X67.11 Y116.14 E4.32930
G1 X65.08 Y116.18 E4.36617
G1 X65.00 Y116.18 E4.36766
G1 X63.06 Y116.14 E4.40286
G1 X62.93 Y116.14 E4.40530
G1 X61.73 Y116.03 E4.42708
G1 X61.61 Y116.01 E4.42930
G1 X60.81 Y115.88 E4.44416
G1 X60.69 Y115.86 E4.44627
G1 X58.60 Y115.40 E4.48516
G1 X58.44 Y115.36 E4.48811
G1 X56.79 Y114.83 E4.51964
G1 X56.66 Y114.79 E4.52220
G1 X54.96 Y114.11 E4.55545
G1 X54.81 Y114.04 E4.55844
G1 X52.48 Y112.86 E4.60579
G1 X52.34 Y112.78 E4.60879
G1 X50.83 Y111.84 E4.64104
G1 X50.71 Y111.76 E4.64373
G1 X49.33 Y110.74 E4.67493
G1 X49.18 Y110.62 E4.67832
G1 X47.30 Y108.92 E4.72437
G1 X47.18 Y108.80 E4.72744
G1 X46.02 Y107.54 E4.75863
G1 X45.95 Y107.47 E4.76046
G1 X45.37 Y106.77 E4.77692
G1 X45.29 Y106.67 E4.77928
G1 X43.83 Y104.63 E4.82493
G1 X43.73 Y104.48 E4.82807
G1 X42.86 Y103.00 E4.85933
G1 X42.78 Y102.86 E4.86227
G1 X41.76 Y100.70 E4.90570
G1 X41.69 Y100.53 E4.90895
G1 X40.92 Y98.44 E4.94948
G1 X40.88 Y98.28 E4.95241
G1 X40.49 Y96.84 E4.97958
G1 X40.46 Y96.71 E4.98199
G1 X40.17 Y95.24 E5.00918
G1 X40.15 Y95.12 E5.01131
G1 X39.95 Y93.58 E5.03964
G1 X39.94 Y93.43 E5.04230
G1 X39.82 Y91.11 E5.08456
G1 X39.82 Y90.97 E5.08707
G1 X39.84 Y90.08 E5.10322
G1 X39.84 Y89.98 E5.10500
G1 X39.96 Y88.40 E5.13380
G1 X39.97 Y88.25 E5.13658
G1 X40.35 Y85.87 E5.18043
G1 X40.38 Y85.71 E5.18328
G1 X40.77 Y84.11 E5.21324
G1 X40.82 Y83.94 E5.21645
G1 X41.58 Y81.76 E5.25831
G1 X41.66 Y81.56 E5.26236
G1 X43.14 Y78.52 E5.32367
G1 X43.20 Y78.41 E5.32595
G1 X43.41 Y78.05 E5.33355
G1 X43.46 Y77.96 E5.33541
G1 X44.07 Y77.02 E5.35591
G1 X44.14 Y76.92 E5.35800
G1 X45.12 Y75.59 E5.38812
G1 X45.18 Y75.51 E5.38989
G1 X45.76 Y74.80 E5.40647
G1 X45.82 Y74.73 E5.40824
G1 X46.92 Y73.52 E5.43791
G1 X47.01 Y73.43 E5.44014
G1 X48.22 Y72.27 E5.47065
G1 X48.31 Y72.18 E5.47297
G1 X49.60 Y71.11 E5.50332
G1 X49.70 Y71.03 E5.50575
G1 X51.05 Y70.05 E5.53606
G0 F1800 X51.34 Y70.46
G1 F1200 X51.46 Y70.38 E5.53879
G1 X53.16 Y69.38 E5.57453
G1 X53.27 Y69.32 E5.57688
G1 X55.18 Y68.39 E5.61552
G1 X55.30 Y68.34 E5.61786
G1 X57.12 Y67.62 E5.65338
G1 X57.26 Y67.58 E5.65601
G1 X58.97 Y67.07 E5.68840
G1 X59.09 Y67.04 E5.69074
G1 X60.80 Y66.69 E5.72247
G1 X60.92 Y66.67 E5.72452
G1 X62.95 Y66.39 E5.76187
G1 X63.12 Y66.38 E5.76502
G1 X64.18 Y66.35 E5.78418
G1 X64.26 Y66.35 E5.78573
G1 X66.27 Y66.39 E5.82223
G1 X66.33 Y66.40 E5.82336
G1 X68.13 Y66.51 E5.85607
G1 X68.28 Y66.52 E5.85883
G1 X69.35 Y66.69 E5.87842
G1 X69.47 Y66.71 E5.88060
G1 X71.70 Y67.24 E5.92222
G1 X71.85 Y67.28 E5.92511
G1 X74.02 Y68.02 E5.96670
G1 X74.14 Y68.07 E5.96913
G1 X75.59 Y68.70 E5.99777
G1 X75.69 Y68.74 E5.99976
G1 X77.03 Y69.44 E6.02719
G1 X77.10 Y69.48 E6.02869
G1 X77.75 Y69.86 E6.04235
G1 X77.82 Y69.90 E6.04385
G1 X79.17 Y70.78 E6.07323
G1 X79.26 Y70.85 E6.07520
G1 X80.58 Y71.85 E6.10533
G1 X80.68 Y71.92 E6.10744
G1 X81.97 Y73.05 E6.13876
G1 X82.06 Y73.14 E6.14098
G1 X83.16 Y74.25 E6.16941
G1 X83.24 Y74.33 E6.17142
G1 X84.30 Y75.57 E6.20102
G1 X84.37 Y75.66 E6.20315
G1 X85.34 Y76.97 E6.23275
G1 X85.41 Y77.06 E6.23485
G1 X86.28 Y78.44 E6.26447
G1 X86.34 Y78.54 E6.26657
G1 X87.12 Y79.98 E6.29629
G1 X87.17 Y80.08 E6.29842
G1 X87.85 Y81.58 E6.32827
G1 X87.89 Y81.68 E6.33032
G1 X88.47 Y83.24 E6.36040
G1 X88.50 Y83.34 E6.36248
G1 X88.97 Y84.95 E6.39282
G1 X89.00 Y85.06 E6.39488
G1 X89.36 Y86.71 E6.42555
G1 X89.38 Y86.81 E6.42753
G1 X89.59 Y88.19 E6.45277
G1 X89.61 Y88.39 E6.45645
G1 X89.67 Y90.87 E6.50156
G1 X89.67 Y90.93 E6.50272
G1 X89.64 Y93.01 E6.54051
G1 X89.63 Y93.13 E6.54259
G1 X89.53 Y94.37 E6.56518
G1 X89.50 Y94.54 E6.56835
G1 X89.10 Y96.60 E6.60639
G1 X89.07 Y96.73 E6.60884
G1 X88.51 Y98.70 E6.64614
G1 X88.47 Y98.84 E6.64880
G1 X87.67 Y100.91 E6.68906
G1 X87.61 Y101.06 E6.69192
G1 X86.71 Y102.85 E6.72842
G1 X86.64 Y102.98 E6.73097
G1 X85.56 Y104.76 E6.76894
G1 X85.47 Y104.88 E6.77163
G1 X84.23 Y106.56 E6.80955
G1 X84.14 Y106.67 E6.81218
G1 X82.75 Y108.22 E6.85005
G1 X82.64 Y108.33 E6.85271
G1 X81.12 Y109.75 E6.89056
G1 X81.01 Y109.85 E6.89322
G1 X79.37 Y111.13 E6.93111
G1 X79.25 Y111.21 E6.93376
G1 X77.49 Y112.35 E6.97180
G1 X77.36 Y112.42 E6.97449
G1 X75.50 Y113.40 E7.01271
G1 X75.36 Y113.46 E7.01542
G1 X73.40 Y114.26 E7.05392
G1 X73.26 Y114.31 E7.05668
G1 X71.23 Y114.93 E7.09514
G1 X71.12 Y114.96 E7.09713
G1 X69.61 Y115.31 E7.12547
G1 X69.47 Y115.34 E7.12797
G1 X67.79 Y115.58 E7.15881
G1 X67.67 Y115.60 E7.16096
G1 X67.17 Y115.63 E7.17013
G1 X67.09 Y115.64 E7.17155
G1 X65.07 Y115.68 E7.20820
G1 X65.00 Y115.68 E7.20951
G1 X63.08 Y115.64 E7.24443
G1 X62.97 Y115.64 E7.24654
G1 X61.79 Y115.53 E7.26802
G1 X61.68 Y115.52 E7.26994
G1 X60.89 Y115.39 E7.28450
G1 X60.79 Y115.37 E7.28634
G1 X58.72 Y114.91 E7.32490
G1 X58.58 Y114.88 E7.32745
G1 X56.95 Y114.36 E7.35862
G1 X56.83 Y114.32 E7.36084
G1 X55.15 Y113.65 E7.39371
G1 X55.02 Y113.59 E7.39630
G1 X52.72 Y112.42 E7.44324
G1 X52.59 Y112.35 E7.44586
G1 X51.10 Y111.43 E7.47772
G1 X51.00 Y111.35 E7.48005
G1 X49.63 Y110.35 E7.51085
G1 X49.51 Y110.24 E7.51378
G1 X47.65 Y108.56 E7.55941
G1 X47.54 Y108.46 E7.56206
G1 X46.39 Y107.21 E7.59293
G1 X46.33 Y107.14 E7.59450
G1 X45.76 Y106.46 E7.61068
G1 X45.69 Y106.37 E7.61274
G1 X44.24 Y104.34 E7.65802
G1 X44.16 Y104.22 E7.66074
G1 X43.30 Y102.75 E7.69160
G1 X43.23 Y102.63 E7.69415
G1 X42.21 Y100.49 E7.73718
G1 X42.15 Y100.35 E7.74000
G1 X41.40 Y98.28 E7.78009
G1 X41.36 Y98.14 E7.78263
G1 X40.97 Y96.72 E7.80945
G1 X40.95 Y96.60 E7.81155
G1 X40.66 Y95.15 E7.83842
G1 X40.65 Y95.05 E7.84028
G1 X40.45 Y93.52 E7.86828
G1 X40.44 Y93.40 E7.87058
G1 X40.32 Y91.09 E7.91249
G1 X40.32 Y90.97 E7.91467
G1 X40.33 Y90.10 E7.93055
G1 X40.34 Y90.01 E7.93208
G1 X40.46 Y88.45 E7.96057
G1 X40.47 Y88.32 E7.96301
G1 X40.84 Y85.95 E8.00649
G1 X40.87 Y85.82 E8.00893
G1 X41.26 Y84.24 E8.03850
G1 X41.30 Y84.10 E8.04126
G1 X42.04 Y81.94 E8.08264
G1 X42.12 Y81.76 E8.08616
G1 X43.58 Y78.75 E8.14705
G1 X43.64 Y78.65 E8.14903
G1 X43.84 Y78.30 E8.15636
G1 X43.88 Y78.23 E8.15797
G1 X44.49 Y77.29 E8.17820
G1 X44.54 Y77.21 E8.18001
G1 X45.52 Y75.89 E8.20986
G1 X45.57 Y75.82 E8.21140
G1 X46.14 Y75.13 E8.22776
G1 X46.20 Y75.06 E8.22929
G1 X47.29 Y73.87 E8.25869
G1 X47.36 Y73.79 E8.26063
G1 X48.56 Y72.64 E8.29082
G1 X48.64 Y72.56 E8.29287
G1 X49.91 Y71.50 E8.32288
G1 X50.00 Y71.43 E8.32497
G1 X51.34 Y70.46 E8.35493
G0 F1800 X91.09 Y82.88
G1 F1200 X91.77 Y80.66 E8.39718
G1 X91.83 Y80.50 E8.40031
G1 X92.44 Y79.04 E8.42904
G1 X92.49 Y78.94 E8.43112
G1 X93.79 Y76.38 E8.48323
G1 X93.87 Y76.23 E8.48629
G1 X94.50 Y75.26 E8.50725
G1 X94.56 Y75.18 E8.50907
G1 X95.54 Y73.86 E8.53897
G1 X95.59 Y73.79 E8.54050
G1 X96.15 Y73.11 E8.55662
G1 X96.19 Y73.06 E8.55769
G1 X96.72 Y72.45 E8.57243
G1 X96.78 Y72.40 E8.57383
G1 X97.94 Y71.20 E8.60407
G1 X98.04 Y71.11 E8.60656
G1 X99.90 Y69.49 E8.65132
G1 X100.02 Y69.39 E8.65427
G1 X101.75 Y68.17 E8.69268
G1 X101.90 Y68.08 E8.69580
G1 X103.67 Y67.09 E8.73278
G1 X103.78 Y67.03 E8.73499
G1 X105.71 Y66.14 E8.77361
G1 X105.85 Y66.08 E8.77642
G1 X108.06 Y65.30 E8.81888
G1 X108.22 Y65.25 E8.82195
G1 X110.32 Y64.75 E8.86128
G1 X110.47 Y64.72 E8.86400
G1 X112.95 Y64.36 E8.90945
G1 X113.13 Y64.35 E8.91282
G1 X114.19 Y64.31 E8.93210
G1 X114.28 Y64.31 E8.93365
G1 X116.29 Y64.36 E8.97016
G1 X116.35 Y64.36 E8.97128
G1 X118.14 Y64.48 E9.00399
G1 X118.30 Y64.49 E9.00675
G1 X119.35 Y64.66 E9.02610
G1 X119.44 Y64.68 E9.02784
G1 X120.96 Y65.01 E9.05598
G1 X121.08 Y65.04 E9.05836
G1 X123.28 Y65.71 E9.10001
G1 X123.43 Y65.76 E9.10291
G1 X125.56 Y66.65 E9.14499
G1 X125.69 Y66.71 E9.14744
G1 X127.07 Y67.42 E9.17563
G1 X127.19 Y67.49 E9.17819
G1 X129.22 Y68.78 E9.22187
G1 X129.34 Y68.86 E9.22443
G1 X130.60 Y69.82 E9.25341
G1 X130.69 Y69.89 E9.25541
G1 X131.99 Y71.02 E9.28667
G1 X132.07 Y71.11 E9.28886
G1 X133.17 Y72.22 E9.31729
G1 X133.25 Y72.30 E9.31932
G1 X134.31 Y73.54 E9.34893
G1 X134.38 Y73.63 E9.35099
G1 X135.35 Y74.93 E9.38060
G1 X135.42 Y75.03 E9.38274
G1 X136.30 Y76.41 E9.41238
G1 X136.35 Y76.51 E9.41447
G1 X137.13 Y77.95 E9.44420
G1 X137.19 Y78.05 E9.44633
G1 X137.86 Y79.55 E9.47618
G1 X137.91 Y79.65 E9.47822
G1 X138.48 Y81.21 E9.50831
G1 X138.52 Y81.31 E9.51038
G1 X138.99 Y82.92 E9.54072
G1 X139.01 Y83.03 E9.54279
G1 X139.38 Y84.68 E9.57346
G1 X139.40 Y84.78 E9.57543
G1 X139.60 Y86.16 E9.60067
G1 X139.62 Y86.36 E9.60436
G1 X139.68 Y88.84 E9.64946
G1 X139.68 Y88.90 E9.65063
G1 X139.65 Y90.99 E9.68844
G1 X139.65 Y91.10 E9.69051
G1 X139.54 Y92.34 E9.71308
G1 X139.52 Y92.51 E9.71626
G1 X139.12 Y94.57 E9.75430
G1 X139.08 Y94.70 E9.75678
G1 X138.52 Y96.67 E9.79409
G1 X138.48 Y96.81 E9.79674
G1 X137.69 Y98.88 E9.83696
G1 X137.62 Y99.02 E9.83983
G1 X136.73 Y100.82 E9.87635
G1 X136.66 Y100.95 E9.87892
G1 X135.57 Y102.73 E9.91691
G1 X135.49 Y102.85 E9.91954
G1 X134.24 Y104.53 E9.95743
G1 X134.15 Y104.64 E9.96009
G1 X132.76 Y106.19 E9.99796
