;Generated with Cura_SteamEngine 13.06.4
M109 T0 S230.000000
T0
;Sliced at: Thu 04 Jul 2013 01:17:41
;Basic settings: Layer height: 0.25 Walls: 1 Fill: 100
;Print time: #P_TIME#
;Filament used: #F_AMNT#m #F_WGHT#g
;Filament cost: #F_COST#
G21        ;metric values
G90        ;absolute positioning
M107       ;start with the fan off
G28 X0 Y0  ;move X/Y to min endstops
G28 Z0     ;move Z to min endstops

G92 E0                  ;zero the extruded length
G1 F200 E3              ;extrude 3mm of feed stock
G92 E0                  ;zero the extruded length again
G1 F9000
M117 Printing...

;total_layers=12
;LAYER:0
M107
G0 F1800 X72.95 Y73.27 Z0.30
;TYPE:SKIRT
G1 F1200 X74.68 Y71.66 E0.04293
G1 X74.83 Y71.53 E0.04651
G1 X76.70 Y70.13 E0.08900
G1 X76.86 Y70.02 E0.09238
G1 X78.07 Y69.29 E0.11814
G1 X78.17 Y69.23 E0.12034
G1 X79.51 Y68.53 E0.14772
G1 X79.60 Y68.48 E0.14960
G1 X81.00 Y67.85 E0.17741
G1 X81.15 Y67.79 E0.18035
G1 X83.24 Y67.06 E0.22059
G1 X83.40 Y67.00 E0.22379
G1 X85.04 Y66.60 E0.25432
G1 X85.21 Y66.56 E0.25755
G1 X87.96 Y66.14 E0.30808
G1 X88.18 Y66.12 E0.31221
G1 X89.22 Y66.09 E0.33102
G1 X89.32 Y66.09 E0.33287
G1 X91.23 Y66.14 E0.36755
G1 X91.30 Y66.14 E0.36884
G1 X93.01 Y66.25 E0.40000
G1 X93.19 Y66.26 E0.40320
G1 X94.21 Y66.43 E0.42208
G1 X94.35 Y66.45 E0.42464
G1 X96.48 Y66.95 E0.46435
G1 X96.66 Y67.00 E0.46770
G1 X98.73 Y67.71 E0.50741
G1 X98.87 Y67.76 E0.51017
G1 X100.25 Y68.36 E0.53762
G1 X100.37 Y68.42 E0.53993
G1 X101.65 Y69.08 E0.56609
G1 X101.73 Y69.13 E0.56783
G1 X102.36 Y69.49 E0.58096
G1 X102.44 Y69.54 E0.58269
G1 X103.79 Y70.43 E0.61211
G1 X103.90 Y70.50 E0.61456
G1 X105.11 Y71.42 E0.64201
G1 X105.20 Y71.50 E0.64429
G1 X106.44 Y72.58 E0.67422
G1 X106.54 Y72.68 E0.67672
G1 X107.59 Y73.74 E0.70384
G1 X107.68 Y73.83 E0.70619
G1 X108.70 Y75.02 E0.73452
G1 X108.78 Y75.12 E0.73695
G1 X109.71 Y76.37 E0.76528
G1 X109.79 Y76.49 E0.76773
G1 X110.62 Y77.80 E0.79605
G1 X110.69 Y77.91 E0.79845
G1 X111.44 Y79.29 E0.82685
G1 X111.50 Y79.41 E0.82929
G1 X112.14 Y80.84 E0.85785
G1 X112.19 Y80.96 E0.86024
G1 X112.74 Y82.45 E0.88899
G1 X112.79 Y82.57 E0.89135
G1 X113.24 Y84.10 E0.92035
G1 X113.27 Y84.23 E0.92273
G1 X113.61 Y85.80 E0.95203
G1 X113.64 Y85.92 E0.95426
G1 X113.84 Y87.25 E0.97870
G1 X113.86 Y87.49 E0.98297
G1 X113.91 Y89.85 E1.02595
G1 X113.92 Y89.93 E1.02728
G1 X113.89 Y91.90 E1.06323
G1 X113.88 Y92.04 E1.06563
G1 X113.78 Y93.22 E1.08728
G1 X113.75 Y93.40 E1.09058
G1 X113.47 Y94.94 E1.11904
G1 X113.43 Y95.10 E1.12193
G1 X112.81 Y97.41 E1.16541
G1 X112.75 Y97.59 E1.16880
G1 X111.98 Y99.58 E1.20753
G1 X111.91 Y99.74 E1.21083
G1 X111.06 Y101.46 E1.24568
G1 X110.98 Y101.60 E1.24860
G1 X109.94 Y103.31 E1.28489
G1 X109.84 Y103.44 E1.28796
G1 X108.65 Y105.05 E1.32422
G1 X108.54 Y105.18 E1.32728
G1 X107.22 Y106.66 E1.36347
G1 X107.10 Y106.79 E1.36653
G1 X105.65 Y108.15 E1.40271
G1 X105.52 Y108.25 E1.40574
G1 X103.95 Y109.48 E1.44200
G1 X103.81 Y109.58 E1.44508
G1 X102.12 Y110.67 E1.48148
G1 X101.98 Y110.75 E1.48459
G1 X100.19 Y111.68 E1.52111
G1 X100.04 Y111.75 E1.52421
G1 X98.17 Y112.52 E1.56102
G1 X98.00 Y112.58 E1.56420
G1 X96.05 Y113.18 E1.60122
G1 X95.89 Y113.22 E1.60420
G1 X93.66 Y113.69 E1.64575
G1 X93.46 Y113.72 E1.64944
G1 X92.17 Y113.85 E1.67287
G1 X92.03 Y113.86 E1.67549
G1 X90.09 Y113.91 E1.71078
G1 X90.00 Y113.91 E1.71225
G1 X88.18 Y113.87 E1.74551
G1 X88.04 Y113.86 E1.74791
G1 X86.92 Y113.76 E1.76838
G1 X86.82 Y113.75 E1.77028
G1 X86.39 Y113.69 E1.77805
G1 X86.28 Y113.67 E1.78025
G1 X83.96 Y113.17 E1.82333
G1 X83.78 Y113.12 E1.82658
G1 X82.21 Y112.63 E1.85655
G1 X82.08 Y112.58 E1.85907
G1 X80.47 Y111.94 E1.89057
G1 X80.32 Y111.87 E1.89358
G1 X78.12 Y110.76 E1.93827
G1 X77.98 Y110.68 E1.94125
G1 X76.55 Y109.79 E1.97178
G1 X76.43 Y109.71 E1.97447
G1 X75.15 Y108.76 E2.00339
G1 X75.06 Y108.69 E2.00553
G1 X74.39 Y108.14 E2.02122
G1 X74.29 Y108.04 E2.02372
G1 X72.58 Y106.37 E2.06724
G1 X72.44 Y106.23 E2.07086
G1 X70.90 Y104.37 E2.11473
G1 X70.80 Y104.24 E2.11774
G1 X69.86 Y102.88 E2.14769
G1 X69.77 Y102.74 E2.15080
G1 X68.61 Y100.69 E2.19351
G1 X68.54 Y100.54 E2.19642
G1 X67.91 Y99.16 E2.22406
G1 X67.86 Y99.03 E2.22672
G1 X67.13 Y97.04 E2.26505
G1 X67.08 Y96.86 E2.26858
G1 X66.57 Y94.85 E2.30621
G1 X66.55 Y94.72 E2.30855
G1 X66.41 Y93.96 E2.32262
G1 X66.39 Y93.84 E2.32476
G1 X66.15 Y91.68 E2.36433
G1 X66.14 Y91.53 E2.36701
G1 X66.08 Y90.05 E2.39395
G1 X66.08 Y89.94 E2.39586
G1 X66.10 Y89.13 E2.41069
G1 X66.10 Y89.06 E2.41194
G1 X66.15 Y88.32 E2.42548
G1 X66.15 Y88.23 E2.42711
G1 X66.32 Y86.71 E2.45475
G1 X66.33 Y86.59 E2.45702
G1 X66.60 Y85.07 E2.48502
G1 X66.62 Y84.95 E2.48727
G1 X66.99 Y83.47 E2.51502
G1 X67.02 Y83.34 E2.51749
G1 X67.48 Y81.91 E2.54473
G1 X67.54 Y81.77 E2.54740
G1 X67.96 Y80.74 E2.56766
G1 X68.01 Y80.62 E2.56997
G1 X69.26 Y78.09 E2.62124
G1 X69.36 Y77.92 E2.62477
G1 X70.10 Y76.75 E2.65006
G1 X70.16 Y76.66 E2.65197
G1 X70.64 Y75.98 E2.66707
G1 X70.70 Y75.90 E2.66883
G1 X71.70 Y74.64 E2.69818
G1 X71.78 Y74.54 E2.70053
G1 X72.84 Y73.38 E2.72912
G1 X72.95 Y73.27 E2.73191
G0 F1800 X73.30 Y73.63
G1 F1200 X75.01 Y72.03 E2.77441
G1 X75.14 Y71.92 E2.77750
G1 X76.99 Y70.53 E2.81954
G1 X77.13 Y70.44 E2.82246
G1 X78.32 Y69.72 E2.84785
G1 X78.41 Y69.67 E2.84976
G1 X79.74 Y68.98 E2.87687
G1 X79.82 Y68.94 E2.87850
G1 X81.19 Y68.31 E2.90596
G1 X81.32 Y68.26 E2.90853
G1 X83.39 Y67.53 E2.94837
G1 X83.54 Y67.49 E2.95112
G1 X85.14 Y67.08 E2.98122
G1 X85.29 Y67.05 E2.98402
G1 X88.02 Y66.64 E3.03408
G1 X88.21 Y66.62 E3.03766
G1 X89.23 Y66.59 E3.05607
G1 X89.32 Y66.59 E3.05767
G1 X91.21 Y66.64 E3.09212
G1 X91.28 Y66.64 E3.09327
G1 X92.97 Y66.74 E3.12412
G1 X93.12 Y66.76 E3.12688
G1 X94.13 Y66.92 E3.14540
G1 X94.25 Y66.94 E3.14762
G1 X96.36 Y67.44 E3.18694
G1 X96.51 Y67.48 E3.18983
G1 X98.56 Y68.18 E3.22914
G1 X98.68 Y68.23 E3.23153
G1 X100.05 Y68.82 E3.25864
G1 X100.15 Y68.87 E3.26064
G1 X101.41 Y69.52 E3.28655
G1 X101.49 Y69.56 E3.28804
G1 X102.10 Y69.92 E3.30093
G1 X102.17 Y69.96 E3.30246
G1 X103.51 Y70.84 E3.33158
G1 X103.61 Y70.91 E3.33371
G1 X104.80 Y71.81 E3.36084
G1 X104.88 Y71.88 E3.36282
G1 X106.11 Y72.96 E3.39243
G1 X106.19 Y73.04 E3.39460
G1 X107.23 Y74.08 E3.42139
G1 X107.31 Y74.17 E3.42342
G1 X108.31 Y75.34 E3.45144
G1 X108.39 Y75.43 E3.45356
G1 X109.30 Y76.67 E3.48156
G1 X109.37 Y76.76 E3.48367
G1 X110.20 Y78.06 E3.51167
G1 X110.25 Y78.16 E3.51374
G1 X110.99 Y79.52 E3.54182
G1 X111.04 Y79.62 E3.54395
G1 X111.68 Y81.04 E3.57219
G1 X111.73 Y81.14 E3.57427
G1 X112.27 Y82.61 E3.60268
G1 X112.31 Y82.72 E3.60473
G1 X112.75 Y84.23 E3.63343
G1 X112.78 Y84.34 E3.63548
G1 X113.12 Y85.90 E3.66447
G1 X113.14 Y86.01 E3.66643
G1 X113.34 Y87.31 E3.69041
G1 X113.36 Y87.52 E3.69413
G1 X113.41 Y89.86 E3.73673
G1 X113.42 Y89.92 E3.73787
G1 X113.39 Y91.89 E3.77357
G1 X113.38 Y92.00 E3.77567
G1 X113.28 Y93.17 E3.79693
G1 X113.26 Y93.33 E3.79978
G1 X112.98 Y94.85 E3.82785
G1 X112.95 Y94.98 E3.83032
G1 X112.32 Y97.26 E3.87340
G1 X112.28 Y97.42 E3.87632
G1 X111.52 Y99.39 E3.91463
G1 X111.46 Y99.53 E3.91747
G1 X110.61 Y101.23 E3.95191
G1 X110.54 Y101.35 E3.95444
G1 X109.51 Y103.03 E3.99032
G1 X109.43 Y103.16 E3.99301
G1 X108.26 Y104.74 E4.02883
G1 X108.16 Y104.85 E4.03149
G1 X106.85 Y106.32 E4.06729
G1 X106.75 Y106.43 E4.06994
G1 X105.31 Y107.77 E4.10569
G1 X105.20 Y107.87 E4.10832
G1 X103.65 Y109.08 E4.14416
G1 X103.53 Y109.17 E4.14685
G1 X101.86 Y110.24 E4.18282
G1 X101.74 Y110.31 E4.18552
G1 X99.97 Y111.23 E4.22164
G1 X99.84 Y111.29 E4.22432
G1 X97.99 Y112.06 E4.26071
G1 X97.84 Y112.11 E4.26345
G1 X95.92 Y112.70 E4.30008
G1 X95.78 Y112.73 E4.30267
G1 X93.57 Y113.20 E4.34377
G1 X93.39 Y113.23 E4.34697
G1 X92.13 Y113.36 E4.36997
G1 X92.01 Y113.36 E4.37225
G1 X90.08 Y113.41 E4.40725
G1 X90.01 Y113.41 E4.40854
G1 X88.19 Y113.37 E4.44152
G1 X88.08 Y113.37 E4.44359
G1 X86.97 Y113.26 E4.46377
G1 X86.88 Y113.25 E4.46542
G1 X86.47 Y113.19 E4.47293
G1 X86.37 Y113.18 E4.47483
G1 X84.07 Y112.68 E4.51758
G1 X83.92 Y112.64 E4.52035
G1 X82.37 Y112.15 E4.54994
G1 X82.25 Y112.11 E4.55216
G1 X80.66 Y111.48 E4.58329
G1 X80.53 Y111.42 E4.58588
G1 X78.36 Y110.32 E4.63017
G1 X78.23 Y110.25 E4.63277
G1 X76.83 Y109.37 E4.66290
G1 X76.72 Y109.30 E4.66524
G1 X75.45 Y108.36 E4.69383
G1 X75.37 Y108.30 E4.69567
G1 X74.72 Y107.76 E4.71104
G1 X74.64 Y107.68 E4.71324
G1 X72.93 Y106.02 E4.75636
G1 X72.82 Y105.90 E4.75946
G1 X71.29 Y104.06 E4.80291
G1 X71.20 Y103.94 E4.80553
G1 X70.28 Y102.61 E4.83507
G1 X70.20 Y102.48 E4.83776
G1 X69.06 Y100.45 E4.88006
G1 X68.99 Y100.33 E4.88259
G1 X68.37 Y98.96 E4.90984
G1 X68.32 Y98.85 E4.91216
G1 X67.61 Y96.88 E4.95008
G1 X67.56 Y96.72 E4.95315
G1 X67.06 Y94.74 E4.99037
G1 X67.04 Y94.62 E4.99241
G1 X66.90 Y93.88 E5.00618
G1 X66.89 Y93.78 E5.00802
G1 X66.64 Y91.63 E5.04726
G1 X66.64 Y91.50 E5.04959
G1 X66.58 Y90.04 E5.07622
G1 X66.58 Y89.95 E5.07787
G1 X66.60 Y89.14 E5.09248
G1 X66.60 Y89.08 E5.09357
G1 X66.65 Y88.35 E5.10691
G1 X66.65 Y88.27 E5.10833
G1 X66.81 Y86.78 E5.13572
G1 X66.83 Y86.67 E5.13769
G1 X67.09 Y85.17 E5.16537
G1 X67.11 Y85.06 E5.16732
G1 X67.47 Y83.60 E5.19475
G1 X67.50 Y83.48 E5.19690
G1 X67.96 Y82.07 E5.22380
G1 X68.00 Y81.95 E5.22612
G1 X68.42 Y80.94 E5.24605
G1 X68.46 Y80.84 E5.24806
G1 X69.70 Y78.33 E5.29894
G1 X69.79 Y78.18 E5.30198
G1 X70.52 Y77.02 E5.32690
G1 X70.57 Y76.94 E5.32854
G1 X71.04 Y76.28 E5.34341
G1 X71.09 Y76.21 E5.34495
G1 X72.09 Y74.96 E5.37402
G1 X72.16 Y74.87 E5.37606
G1 X73.21 Y73.72 E5.40430
G1 X73.30 Y73.63 E5.40673
G0 F1800 X76.09 Y76.49
;TYPE:WALL-INNER
G1 F1200 X77.64 Y75.05 E5.44516
G1 X79.31 Y73.80 E5.48304
G1 X80.33 Y73.18 E5.50466
G1 X81.53 Y72.55 E5.52929
G1 X82.75 Y72.00 E5.55374
G1 X84.62 Y71.34 E5.58975
G1 X86.01 Y70.99 E5.61569
G1 X88.47 Y70.62 E5.66098
G1 X89.29 Y70.59 E5.67576
G1 X91.07 Y70.63 E5.70809
G1 X92.62 Y70.73 E5.73632
G1 X93.43 Y70.86 E5.75120
G1 X95.33 Y71.30 E5.78667
G1 X97.18 Y71.93 E5.82216
G1 X98.38 Y72.46 E5.84609
G1 X99.52 Y73.05 E5.86936
G1 X100.04 Y73.35 E5.88019
G1 X101.25 Y74.14 E5.90661
G1 X102.31 Y74.95 E5.93079
G1 X103.41 Y75.91 E5.95721
G1 X104.33 Y76.84 E5.98103
G1 X105.23 Y77.89 E6.00612
G1 X106.04 Y78.97 E6.03076
G1 X106.79 Y80.15 E6.05609
G1 X107.43 Y81.34 E6.08066
G1 X108.01 Y82.62 E6.10611
G1 X108.49 Y83.92 E6.13136
G1 X108.89 Y85.28 E6.15711
G1 X109.20 Y86.68 E6.18324
G1 X109.36 Y87.76 E6.20310
G1 X109.42 Y89.93 E6.24239
G1 X109.39 Y91.75 E6.27555
G1 X109.31 Y92.71 E6.29298
G1 X109.07 Y94.02 E6.31722
G1 X108.50 Y96.11 E6.35654
G1 X107.83 Y97.85 E6.39035
G1 X107.08 Y99.35 E6.42090
G1 X106.16 Y100.86 E6.45302
G1 X105.11 Y102.27 E6.48503
G1 X103.95 Y103.57 E6.51659
G1 X102.65 Y104.78 E6.54887
G1 X101.27 Y105.86 E6.58067
G1 X99.79 Y106.82 E6.61279
G1 X98.22 Y107.64 E6.64488
G1 X96.56 Y108.32 E6.67743
G1 X94.86 Y108.84 E6.70989
G1 X92.86 Y109.26 E6.74702
G1 X91.83 Y109.37 E6.76581
G1 X91.64 Y109.37 E6.76924
G1 X91.81 Y109.17 E6.77404
G1 X91.99 Y108.87 E6.78042
G1 X92.12 Y108.54 E6.78687
G1 X92.20 Y108.19 E6.79330
G1 X92.22 Y107.84 E6.79972
G1 X92.19 Y107.47 E6.80642
G1 X92.10 Y107.13 E6.81286
G1 X91.99 Y106.87 E6.81800
G1 X91.76 Y106.51 E6.82569
G1 X91.54 Y106.26 E6.83171
G1 X91.48 Y106.21 E6.83329
G1 X91.08 Y105.93 E6.84196
G1 X91.01 Y105.89 E6.84345
G1 X90.68 Y105.76 E6.85001
G1 X90.61 Y105.74 E6.85132
G1 X90.28 Y105.67 E6.85747
G1 X108.12 Y95.21 E7.23317
G1 X108.31 Y94.72 E7.24279
G1 X108.17 Y94.32 E7.25052
G1 X107.97 Y93.97 E7.25784
G1 X106.76 Y92.15 E7.29743
G1 X106.54 Y91.93 E7.30328
G1 X106.11 Y91.83 E7.31118
G1 X105.79 Y91.96 E7.31739
G1 X103.09 Y93.53 E7.37418
G1 X103.07 Y91.35 E7.41375
G1 X103.11 Y76.45 E7.68439
G1 X102.67 Y76.01 E7.69568
G1 X99.72 Y76.01 E7.74924
G1 X99.28 Y76.44 E7.76047
G1 X99.17 Y95.82 E8.11243
G1 X92.56 Y99.64 E8.25111
G1 X89.89 Y101.11 E8.30649
G1 X80.82 Y95.86 E8.49686
G1 X80.72 Y76.37 E8.85098
G1 X80.28 Y75.93 E8.86222
G1 X77.30 Y75.93 E8.91633
G1 X76.86 Y76.37 E8.92762
G1 X76.90 Y90.33 E9.18113
G1 X76.88 Y93.58 E9.24030
G1 X73.84 Y91.82 E9.30414
G1 X73.27 Y91.94 E9.31474
G1 X72.85 Y92.55 E9.32808
G1 X71.71 Y94.61 E9.37081
G1 X71.87 Y95.19 E9.38185
G1 X89.61 Y105.69 E9.75639
G1 X89.35 Y105.76 E9.76126
G1 X89.00 Y105.90 E9.76820
G1 X88.79 Y106.03 E9.77267
G1 X88.48 Y106.26 E9.77966
G1 X88.24 Y106.54 E9.78644
G1 X88.05 Y106.84 E9.79279
G1 X87.94 Y107.11 E9.79815
G1 X87.83 Y107.51 E9.80567
G1 X87.81 Y107.81 E9.81100
G1 X87.81 Y107.86 E9.81207
G1 X87.84 Y108.23 E9.81872
G1 X87.92 Y108.58 E9.82519
G1 X88.06 Y108.89 E9.83145
G1 X88.25 Y109.20 E9.83802
G1 X88.39 Y109.38 E9.84216
G1 X88.36 Y109.38 E9.84280
G1 X87.13 Y109.25 E9.86525
G1 X85.02 Y108.80 E9.90441
G1 X83.65 Y108.37 E9.93047
G1 X82.25 Y107.81 E9.95788
G1 X80.26 Y106.80 E9.99846
G1 X79.02 Y106.03 E10.02496
G1 X77.89 Y105.19 E10.05052
G1 X77.36 Y104.75 E10.06298
G1 X75.81 Y103.24 E10.10229
G1 X74.43 Y101.58 E10.14150
G1 X73.63 Y100.42 E10.16716
G1 X72.59 Y98.58 E10.20559
G1 X72.05 Y97.40 E10.22913
G1 X71.41 Y95.62 E10.26348
G1 X70.96 Y93.85 E10.29672
G1 X70.86 Y93.25 E10.30766
G1 X70.63 Y91.28 E10.34376
G1 X70.58 Y89.96 E10.36768
G1 X70.60 Y89.29 E10.37993
G1 X70.64 Y88.64 E10.39172
G1 X70.78 Y87.28 E10.41664
G1 X71.02 Y85.94 E10.44137
G1 X71.34 Y84.62 E10.46593
G1 X71.74 Y83.39 E10.48951
G1 X72.09 Y82.54 E10.50621
G1 X73.24 Y80.21 E10.55343
G1 X73.87 Y79.20 E10.57506
G1 X74.26 Y78.65 E10.58736
G1 X75.18 Y77.50 E10.61407
G1 X76.09 Y76.49 E10.63879
G0 F1800 X71.78 Y94.61
G0 X71.93 Y95.15
G0 X90.11 Y105.70
G0 X108.07 Y95.17
G0 X108.12 Y94.34
G0 X106.51 Y91.98
G0 X105.82 Y92.00
G0 X103.04 Y76.48
G0 X102.64 Y76.08
G0 X99.75 Y76.08
G0 X99.35 Y76.47
G0 X99.24 Y95.86
G0 X80.75 Y95.90
G0 X80.63 Y81.40
G0 X82.60 Y83.53
G1 F1200 X82.46 Y83.65 E10.64214
G1 X82.26 Y83.90 E10.64796
G1 X81.58 Y85.04 E10.67196
G1 X81.41 Y85.41 E10.67937
G1 X81.38 Y85.56 E10.68216
G1 X81.40 Y85.84 E10.68730
G1 X81.57 Y86.16 E10.69390
G1 X81.91 Y86.37 E10.70114
G1 X84.98 Y88.31 E10.76703
G1 X82.20 Y90.37 E10.82978
G1 X81.72 Y90.75 E10.84098
G1 X81.62 Y90.88 E10.84395
G1 X81.49 Y91.16 E10.84951
G1 X81.49 Y91.51 E10.85600
G1 X81.63 Y91.76 E10.86115
G1 X81.75 Y91.93 E10.86492
G1 X82.94 Y93.09 E10.89506
G1 X83.49 Y93.13 E10.90501
G1 X89.73 Y88.58 E11.04544
G1 X89.73 Y87.82 E11.05919
G1 X89.01 Y87.29 E11.07544
G1 X83.36 Y83.39 E11.20028
G1 X82.98 Y83.35 E11.20706
G1 X82.71 Y83.45 E11.21236
G1 X82.60 Y83.53 E11.21485
G0 F1800 X88.71 Y83.50
G1 F1200 X89.13 Y83.94 E11.22583
G1 X91.00 Y84.01 E11.25981
G1 X98.10 Y84.06 E11.38873
G1 X98.55 Y83.57 E11.40085
G1 X98.49 Y83.02 E11.41075
G1 X98.42 Y82.08 E11.42798
G1 X98.42 Y81.34 E11.44143
G1 X97.98 Y80.90 E11.45268
G1 X89.15 Y80.90 E11.61301
G1 X88.71 Y81.34 E11.62429
G1 X88.71 Y83.50 E11.66362
G0 F1800 X89.21 Y83.30
;TYPE:WALL-OUTER
G1 F1200 X89.35 Y83.45 E11.66730
G1 X91.01 Y83.51 E11.69753
G1 X97.88 Y83.56 E11.82220
G1 X98.03 Y83.39 E11.82624
G1 X97.93 Y82.23 E11.84750
G1 X97.92 Y82.04 E11.85099
G1 X97.92 Y81.55 E11.85987
G1 X97.77 Y81.40 E11.86361
G1 X89.36 Y81.40 E12.01642
G1 X89.21 Y81.55 E12.02017
G1 X89.21 Y83.30 E12.05207
G0 F1800 X88.86 Y83.30
G0 X89.58 Y88.07
G0 X89.23 Y88.07
G1 F1200 X83.18 Y83.87 E12.18597
G1 X83.05 Y83.86 E12.18824
G1 X82.90 Y83.93 E12.19126
G1 X82.84 Y83.98 E12.19275
G1 X82.68 Y84.18 E12.19729
G1 X82.00 Y85.32 E12.22152
G1 X81.94 Y85.43 E12.22385
G1 X81.89 Y85.54 E12.22589
G1 X81.89 Y85.59 E12.22681
G1 X81.89 Y85.70 E12.22881
G1 X81.95 Y85.80 E12.23101
G1 X82.18 Y85.95 E12.23594
G1 X85.86 Y88.28 E12.31515
G1 X82.51 Y90.76 E12.39087
G1 X82.08 Y91.11 E12.40101
G1 X82.05 Y91.15 E12.40199
G1 X81.99 Y91.27 E12.40439
G1 X81.99 Y91.39 E12.40657
G1 X82.04 Y91.49 E12.40860
G1 X82.12 Y91.59 E12.41086
G1 X83.16 Y92.61 E12.43728
G1 X83.34 Y92.62 E12.44060
G1 X89.23 Y88.32 E12.57305
G1 X89.23 Y88.07 E12.57762
G0 F1800 X89.58 Y88.07
G0 X89.66 Y88.54
G0 X80.63 Y95.92
G0 X80.32 Y96.15
G1 F1200 X80.22 Y76.58 E12.93320
G1 X80.07 Y76.43 E12.93694
G1 X77.51 Y76.43 E12.98352
G1 X77.36 Y76.58 E12.98730
G1 X77.40 Y90.32 E13.23703
G1 X77.37 Y94.45 E13.31196
G1 X73.76 Y92.35 E13.38793
G1 X73.57 Y92.39 E13.39146
G1 X73.28 Y92.80 E13.40054
G1 X72.25 Y94.67 E13.43934
G1 X72.30 Y94.86 E13.44304
G1 X89.86 Y105.25 E13.81367
G1 X89.99 Y105.26 E13.81614
G1 X107.71 Y94.87 E14.18930
G1 X107.78 Y94.71 E14.19253
