;Generated with Cura_SteamEngine 13.06.4
M109 T0 S230.000000
T0
;Sliced at: Thu 04 Jul 2013 01:03:20
;Basic settings: Layer height: 0.25 Walls: 1 Fill: 100
;Print time: #P_TIME#
;Filament used: #F_AMNT#m #F_WGHT#g
;Filament cost: #F_COST#
G21        ;metric values
G90        ;absolute positioning
M107       ;start with the fan off
G28 X0 Y0  ;move X/Y to min endstops
G28 Z0     ;move Z to min endstops

G92 E0                  ;zero the extruded length
G1 F200 E3              ;extrude 3mm of feed stock
G92 E0                  ;zero the extruded length again
G1 F9000
M117 Printing...

;total_layers=13
;LAYER:0
M107
G0 F1800 X71.12 Y71.54 Z0.30
;TYPE:SKIRT
G1 F1200 X72.40 Y70.30 E0.03247
G1 X72.53 Y70.19 E0.03543
G1 X74.54 Y68.57 E0.08254
G1 X74.67 Y68.47 E0.08539
G1 X75.86 Y67.67 E0.11146
G1 X76.03 Y67.56 E0.11505
G1 X78.89 Y66.03 E0.17411
G1 X79.05 Y65.96 E0.17731
G1 X81.06 Y65.12 E0.21681
G1 X81.20 Y65.07 E0.21962
G1 X82.61 Y64.61 E0.24643
G1 X82.73 Y64.58 E0.24874
G1 X84.52 Y64.13 E0.28226
G1 X84.69 Y64.09 E0.28551
G1 X87.76 Y63.62 E0.34192
G1 X87.99 Y63.60 E0.34604
G1 X89.13 Y63.57 E0.36682
G1 X89.23 Y63.57 E0.36864
G1 X91.37 Y63.62 E0.40742
G1 X91.44 Y63.62 E0.40871
G1 X93.35 Y63.74 E0.44349
G1 X93.52 Y63.76 E0.44666
G1 X94.65 Y63.94 E0.46738
G1 X94.76 Y63.96 E0.46943
G1 X96.36 Y64.31 E0.49915
G1 X96.48 Y64.34 E0.50136
G1 X98.07 Y64.79 E0.53138
G1 X98.21 Y64.84 E0.53412
G1 X100.47 Y65.70 E0.57807
G1 X100.61 Y65.76 E0.58089
G1 X102.10 Y66.46 E0.61069
G1 X102.21 Y66.52 E0.61295
G1 X103.62 Y67.31 E0.64236
G1 X103.73 Y67.37 E0.64475
G1 X105.25 Y68.37 E0.67779
G1 X105.36 Y68.45 E0.68021
G1 X106.71 Y69.47 E0.71093
G1 X106.81 Y69.55 E0.71324
G1 X108.19 Y70.75 E0.74649
G1 X108.29 Y70.85 E0.74902
G1 X109.46 Y72.04 E0.77940
G1 X109.55 Y72.14 E0.78173
G1 X110.68 Y73.45 E0.81329
G1 X110.76 Y73.56 E0.81568
G1 X111.80 Y74.95 E0.84725
G1 X111.88 Y75.06 E0.84971
G1 X112.81 Y76.53 E0.88128
G1 X112.88 Y76.64 E0.88367
G1 X113.71 Y78.18 E0.91535
G1 X113.77 Y78.29 E0.91779
G1 X114.49 Y79.89 E0.94961
G1 X114.54 Y80.01 E0.95201
G1 X115.15 Y81.67 E0.98405
G1 X115.19 Y81.79 E0.98642
G1 X115.69 Y83.50 E1.01875
G1 X115.72 Y83.62 E1.02111
G1 X116.11 Y85.38 E1.05379
G1 X116.13 Y85.50 E1.05606
G1 X116.35 Y86.97 E1.08300
G1 X116.37 Y87.20 E1.08723
G1 X116.43 Y89.84 E1.13522
G1 X116.44 Y89.92 E1.13657
G1 X116.40 Y92.13 E1.17672
G1 X116.40 Y92.26 E1.17909
G1 X116.29 Y93.56 E1.20290
G1 X116.26 Y93.72 E1.20585
G1 X116.04 Y95.01 E1.22950
G1 X116.01 Y95.17 E1.23248
G1 X115.21 Y98.19 E1.28930
G1 X115.15 Y98.38 E1.29295
G1 X114.30 Y100.60 E1.33601
G1 X114.23 Y100.76 E1.33928
G1 X113.27 Y102.68 E1.37833
G1 X113.19 Y102.83 E1.38130
G1 X112.03 Y104.73 E1.42175
G1 X111.93 Y104.87 E1.42482
G1 X110.61 Y106.65 E1.46522
G1 X110.50 Y106.78 E1.46829
G1 X109.02 Y108.44 E1.50863
G1 X108.90 Y108.56 E1.51169
G1 X107.28 Y110.07 E1.55202
G1 X107.15 Y110.18 E1.55505
G1 X105.40 Y111.55 E1.59543
G1 X105.26 Y111.65 E1.59851
G1 X103.39 Y112.86 E1.63906
G1 X103.24 Y112.94 E1.64217
G1 X101.25 Y113.98 E1.68288
G1 X101.09 Y114.05 E1.68603
G1 X99.00 Y114.91 E1.72722
G1 X98.81 Y114.97 E1.73072
G1 X96.04 Y115.79 E1.78317
G1 X95.86 Y115.83 E1.78666
G1 X93.54 Y116.26 E1.82951
G1 X93.36 Y116.29 E1.83277
G1 X92.37 Y116.37 E1.85084
G1 X92.25 Y116.38 E1.85305
G1 X90.09 Y116.43 E1.89226
G1 X90.01 Y116.43 E1.89375
G1 X87.96 Y116.39 E1.93087
G1 X87.83 Y116.38 E1.93328
G1 X86.57 Y116.26 E1.95639
G1 X86.42 Y116.25 E1.95901
G1 X85.17 Y116.03 E1.98217
G1 X85.06 Y116.01 E1.98415
G1 X83.26 Y115.60 E2.01761
G1 X83.12 Y115.56 E2.02031
G1 X81.38 Y115.01 E2.05341
G1 X81.25 Y114.96 E2.05600
G1 X79.46 Y114.25 E2.09099
G1 X79.31 Y114.18 E2.09396
G1 X76.86 Y112.94 E2.14397
G1 X76.71 Y112.86 E2.14699
G1 X75.14 Y111.88 E2.18060
G1 X75.05 Y111.82 E2.18256
G1 X74.28 Y111.27 E2.19975
G1 X74.18 Y111.20 E2.20191
G1 X72.81 Y110.09 E2.23403
G1 X72.70 Y110.00 E2.23662
G1 X71.38 Y108.76 E2.26942
G1 X71.29 Y108.67 E2.27186
G1 X70.06 Y107.34 E2.30471
G1 X69.97 Y107.24 E2.30709
G1 X68.85 Y105.84 E2.33963
G1 X68.79 Y105.76 E2.34145
G1 X68.25 Y105.00 E2.35841
G1 X68.19 Y104.92 E2.36023
G1 X67.25 Y103.44 E2.39217
G1 X67.19 Y103.35 E2.39410
G1 X66.74 Y102.54 E2.41088
G1 X66.69 Y102.46 E2.41271
G1 X65.93 Y100.92 E2.44387
G1 X65.88 Y100.79 E2.44646
G1 X64.99 Y98.59 E2.48954
G1 X64.94 Y98.44 E2.49239
G1 X64.47 Y96.93 E2.52103
G1 X64.44 Y96.80 E2.52346
G1 X64.09 Y95.28 E2.55188
G1 X64.06 Y95.15 E2.55417
G1 X63.81 Y93.57 E2.58343
G1 X63.79 Y93.42 E2.58602
G1 X63.58 Y90.99 E2.63049
G1 X63.58 Y90.85 E2.63287
G1 X63.56 Y89.99 E2.64864
G1 X63.56 Y89.92 E2.64988
G1 X63.58 Y89.02 E2.66621
G1 X63.59 Y88.92 E2.66799
G1 X63.71 Y87.25 E2.69836
G1 X63.73 Y87.10 E2.70115
G1 X64.13 Y84.57 E2.74771
G1 X64.17 Y84.38 E2.75116
G1 X64.81 Y81.94 E2.79708
G1 X64.87 Y81.77 E2.80036
G1 X65.44 Y80.22 E2.83025
G1 X65.51 Y80.04 E2.83381
G1 X67.26 Y76.52 E2.90529
G1 X67.38 Y76.30 E2.90987
G1 X68.56 Y74.56 E2.94801
G1 X68.64 Y74.44 E2.95062
G1 X69.78 Y73.01 E2.98373
G1 X69.86 Y72.92 E2.98610
G1 X71.03 Y71.63 E3.01771
G1 X71.12 Y71.54 E3.01992
G0 F1800 X71.47 Y71.90
G1 F1200 X72.74 Y70.67 E3.05203
G1 X72.85 Y70.58 E3.05460
G1 X74.85 Y68.96 E3.10131
G1 X74.96 Y68.88 E3.10378
G1 X76.13 Y68.09 E3.12942
G1 X76.27 Y68.00 E3.13253
G1 X79.12 Y66.48 E3.19113
G1 X79.26 Y66.42 E3.19391
G1 X81.24 Y65.59 E3.23300
G1 X81.37 Y65.54 E3.23544
G1 X82.75 Y65.09 E3.26192
G1 X82.86 Y65.06 E3.26392
G1 X84.63 Y64.61 E3.29707
G1 X84.78 Y64.58 E3.29989
G1 X87.82 Y64.12 E3.35581
G1 X88.02 Y64.10 E3.35938
G1 X89.14 Y64.07 E3.37976
G1 X89.23 Y64.07 E3.38134
G1 X91.35 Y64.12 E3.41990
G1 X91.41 Y64.12 E3.42103
G1 X93.31 Y64.24 E3.45550
G1 X93.46 Y64.26 E3.45825
G1 X94.57 Y64.43 E3.47864
G1 X94.66 Y64.45 E3.48039
G1 X96.24 Y64.80 E3.50983
G1 X96.35 Y64.82 E3.51176
G1 X97.92 Y65.27 E3.54144
G1 X98.04 Y65.32 E3.54382
G1 X100.29 Y66.16 E3.58740
G1 X100.41 Y66.21 E3.58982
G1 X101.88 Y66.91 E3.61930
G1 X101.97 Y66.96 E3.62126
G1 X103.37 Y67.74 E3.65036
G1 X103.47 Y67.80 E3.65244
G1 X104.97 Y68.78 E3.68516
G1 X105.07 Y68.85 E3.68725
G1 X106.40 Y69.86 E3.71767
G1 X106.49 Y69.93 E3.71968
G1 X107.85 Y71.12 E3.75259
G1 X107.94 Y71.21 E3.75477
G1 X109.10 Y72.39 E3.78482
G1 X109.18 Y72.47 E3.78687
G1 X110.30 Y73.77 E3.81810
G1 X110.37 Y73.86 E3.82017
G1 X111.39 Y75.24 E3.85141
G1 X111.46 Y75.34 E3.85354
G1 X112.38 Y76.79 E3.88478
G1 X112.44 Y76.89 E3.88685
G1 X113.26 Y78.40 E3.91821
G1 X113.31 Y78.51 E3.92031
G1 X114.03 Y80.09 E3.95182
G1 X114.07 Y80.19 E3.95389
G1 X114.68 Y81.83 E3.98562
G1 X114.71 Y81.94 E3.98771
G1 X115.21 Y83.63 E4.01971
G1 X115.24 Y83.74 E4.02174
G1 X115.62 Y85.48 E4.05412
G1 X115.64 Y85.59 E4.05609
G1 X115.85 Y87.03 E4.08257
G1 X115.87 Y87.23 E4.08625
G1 X115.93 Y89.85 E4.13386
G1 X115.94 Y89.92 E4.13504
G1 X115.90 Y92.11 E4.17494
G1 X115.90 Y92.22 E4.17700
G1 X115.79 Y93.51 E4.20045
G1 X115.77 Y93.65 E4.20301
G1 X115.55 Y94.91 E4.22626
G1 X115.52 Y95.05 E4.22884
G1 X114.73 Y98.05 E4.28522
G1 X114.68 Y98.22 E4.28839
G1 X113.84 Y100.41 E4.33098
G1 X113.77 Y100.55 E4.33382
G1 X112.83 Y102.45 E4.37243
G1 X112.76 Y102.58 E4.37503
G1 X111.61 Y104.46 E4.41509
G1 X111.52 Y104.58 E4.41774
G1 X110.21 Y106.34 E4.45772
G1 X110.12 Y106.46 E4.46037
G1 X108.65 Y108.10 E4.50029
G1 X108.55 Y108.20 E4.50297
G1 X106.95 Y109.70 E4.54289
G1 X106.84 Y109.80 E4.54553
G1 X105.10 Y111.15 E4.58550
G1 X104.98 Y111.23 E4.58815
G1 X103.12 Y112.43 E4.62828
G1 X103.00 Y112.50 E4.63099
G1 X101.03 Y113.53 E4.67129
G1 X100.89 Y113.59 E4.67400
G1 X98.82 Y114.44 E4.71475
G1 X98.66 Y114.50 E4.71782
G1 X95.92 Y115.30 E4.76977
G1 X95.75 Y115.34 E4.77281
G1 X93.46 Y115.77 E4.81521
G1 X93.30 Y115.79 E4.81802
G1 X92.33 Y115.87 E4.83575
G1 X92.23 Y115.88 E4.83764
G1 X90.08 Y115.93 E4.87662
G1 X90.01 Y115.93 E4.87789
G1 X87.98 Y115.89 E4.91476
G1 X87.87 Y115.88 E4.91685
G1 X86.62 Y115.77 E4.93963
G1 X86.50 Y115.75 E4.94191
G1 X85.26 Y115.54 E4.96476
G1 X85.16 Y115.52 E4.96648
G1 X83.39 Y115.11 E4.99963
G1 X83.26 Y115.08 E5.00194
G1 X81.54 Y114.54 E5.03470
G1 X81.43 Y114.50 E5.03694
G1 X79.66 Y113.79 E5.07158
G1 X79.53 Y113.73 E5.07415
G1 X77.09 Y112.50 E5.12377
G1 X76.97 Y112.43 E5.12636
G1 X75.41 Y111.46 E5.15963
G1 X75.33 Y111.41 E5.16135
G1 X74.57 Y110.87 E5.17827
G1 X74.49 Y110.81 E5.18014
G1 X73.12 Y109.71 E5.21195
G1 X73.03 Y109.63 E5.21419
G1 X71.73 Y108.40 E5.24667
G1 X71.65 Y108.32 E5.24875
G1 X70.43 Y107.01 E5.28128
G1 X70.36 Y106.92 E5.28336
G1 X69.25 Y105.54 E5.31561
G1 X69.20 Y105.47 E5.31719
G1 X68.66 Y104.72 E5.33394
G1 X68.61 Y104.65 E5.33548
G1 X67.67 Y103.18 E5.36718
G1 X67.62 Y103.10 E5.36886
G1 X67.18 Y102.31 E5.38539
G1 X67.14 Y102.23 E5.38696
G1 X66.39 Y100.71 E5.41782
G1 X66.34 Y100.59 E5.42007
G1 X65.46 Y98.41 E5.46280
G1 X65.41 Y98.28 E5.46526
G1 X64.95 Y96.79 E5.49357
G1 X64.93 Y96.68 E5.49567
G1 X64.58 Y95.17 E5.52377
G1 X64.55 Y95.07 E5.52576
G1 X64.30 Y93.49 E5.55470
G1 X64.29 Y93.37 E5.55693
G1 X64.08 Y90.95 E5.60106
G1 X64.07 Y90.84 E5.60313
G1 X64.06 Y89.98 E5.61865
G1 X64.06 Y89.92 E5.61974
G1 X64.08 Y89.04 E5.63586
G1 X64.09 Y88.95 E5.63740
G1 X64.21 Y87.30 E5.66748
G1 X64.23 Y87.17 E5.66990
G1 X64.62 Y84.66 E5.71604
G1 X64.65 Y84.50 E5.71904
G1 X65.29 Y82.08 E5.76449
G1 X65.34 Y81.93 E5.76734
G1 X65.90 Y80.41 E5.79676
G1 X65.97 Y80.25 E5.79985
G1 X67.70 Y76.75 E5.87078
G1 X67.81 Y76.57 E5.87476
G1 X68.97 Y74.85 E5.91241
G1 X69.04 Y74.75 E5.91470
G1 X70.16 Y73.33 E5.94747
G1 X70.24 Y73.25 E5.94952
G1 X71.40 Y71.97 E5.98082
G1 X71.47 Y71.90 E5.98274
G0 F1800 X74.30 Y74.73
;TYPE:WALL-INNER
G1 F1200 X75.44 Y73.62 E6.01165
G1 X77.28 Y72.14 E6.05448
G1 X78.27 Y71.47 E6.07618
G1 X80.91 Y70.06 E6.13054
G1 X82.70 Y69.31 E6.16586
G1 X83.91 Y68.92 E6.18894
G1 X85.50 Y68.52 E6.21866
G1 X88.28 Y68.10 E6.26976
G1 X89.20 Y68.07 E6.28652
G1 X91.20 Y68.12 E6.32294
G1 X92.95 Y68.23 E6.35480
G1 X93.87 Y68.37 E6.37173
G1 X95.32 Y68.69 E6.39858
G1 X96.72 Y69.09 E6.42512
G1 X98.78 Y69.87 E6.46513
G1 X100.09 Y70.49 E6.49137
G1 X101.34 Y71.19 E6.51750
G1 X102.72 Y72.09 E6.54740
G1 X103.91 Y72.99 E6.57455
G1 X105.15 Y74.08 E6.60458
G1 X106.19 Y75.14 E6.63148
G1 X107.21 Y76.32 E6.65982
G1 X108.13 Y77.55 E6.68771
G1 X108.97 Y78.88 E6.71627
G1 X109.70 Y80.23 E6.74426
G1 X110.35 Y81.66 E6.77278
G1 X110.89 Y83.13 E6.80127
G1 X111.35 Y84.67 E6.83035
G1 X111.69 Y86.26 E6.85998
G1 X111.88 Y87.48 E6.88228
G1 X111.94 Y89.92 E6.92664
G1 X111.90 Y91.98 E6.96405
G1 X111.81 Y93.07 E6.98392
G1 X111.63 Y94.13 E7.00350
G1 X110.89 Y96.91 E7.05575
G1 X110.14 Y98.87 E7.09388
G1 X109.30 Y100.57 E7.12835
G1 X108.25 Y102.28 E7.16491
G1 X107.07 Y103.87 E7.20084
G1 X105.74 Y105.35 E7.23693
G1 X104.29 Y106.71 E7.27306
G1 X102.73 Y107.92 E7.30892
G1 X101.05 Y109.01 E7.34534
G1 X99.28 Y109.93 E7.38167
G1 X97.42 Y110.69 E7.41811
G1 X94.91 Y111.43 E7.46567
G1 X92.84 Y111.81 E7.50393
G1 X92.06 Y111.88 E7.51803
G1 X91.62 Y111.89 E7.52615
G1 X91.96 Y111.51 E7.53543
G1 X92.15 Y111.19 E7.54232
G1 X92.29 Y110.83 E7.54935
G1 X92.38 Y110.45 E7.55635
G1 X92.40 Y110.13 E7.56221
G1 X92.40 Y110.07 E7.56330
G1 X92.37 Y109.68 E7.57046
G1 X92.29 Y109.36 E7.57636
G1 X92.27 Y109.30 E7.57747
G1 X92.12 Y108.96 E7.58424
G1 X91.91 Y108.63 E7.59141
G1 X91.62 Y108.32 E7.59904
G1 X91.36 Y108.12 E7.60518
G1 X91.30 Y108.08 E7.60638
G1 X90.88 Y107.87 E7.61485
G1 X90.44 Y107.74 E7.62321
G1 X90.01 Y107.70 E7.63100
G1 X89.53 Y107.76 E7.63986
G1 X89.17 Y107.86 E7.64671
G1 X89.10 Y107.89 E7.64799
G1 X88.75 Y108.07 E7.65513
G1 X88.70 Y108.10 E7.65633
G1 X88.36 Y108.36 E7.66405
G1 X88.09 Y108.67 E7.67139
G1 X87.89 Y108.99 E7.67828
G1 X87.75 Y109.35 E7.68530
G1 X87.66 Y109.72 E7.69227
G1 X87.63 Y110.05 E7.69834
G1 X87.63 Y110.11 E7.69943
G1 X87.66 Y110.49 E7.70638
G1 X87.75 Y110.87 E7.71339
G1 X87.90 Y111.21 E7.72018
G1 X88.10 Y111.55 E7.72731
G1 X88.38 Y111.86 E7.73495
G1 X88.42 Y111.90 E7.73592
G1 X88.15 Y111.89 E7.74088
G1 X87.07 Y111.79 E7.76060
G1 X86.00 Y111.61 E7.78022
G1 X84.37 Y111.24 E7.81069
G1 X82.83 Y110.75 E7.83992
G1 X81.24 Y110.11 E7.87106
G1 X78.99 Y108.98 E7.91689
G1 X77.59 Y108.10 E7.94691
G1 X76.93 Y107.64 E7.96156
G1 X75.71 Y106.65 E7.99005
G1 X74.53 Y105.55 E8.01936
G1 X73.43 Y104.35 E8.04898
G1 X72.42 Y103.09 E8.07828
G1 X71.94 Y102.43 E8.09300
G1 X71.08 Y101.08 E8.12212
G1 X70.01 Y99.01 E8.16447
G1 X69.21 Y97.01 E8.20368
G1 X68.80 Y95.70 E8.22863
G1 X68.49 Y94.34 E8.25396
G1 X68.26 Y92.95 E8.27955
G1 X68.07 Y90.70 E8.32048
G1 X68.06 Y89.98 E8.33357
G1 X68.08 Y89.19 E8.34807
G1 X68.19 Y87.70 E8.37519
G1 X68.56 Y85.40 E8.41748
G1 X69.13 Y83.21 E8.45862
G1 X69.61 Y81.92 E8.48367
G1 X71.21 Y78.67 E8.54938
G1 X72.23 Y77.16 E8.58245
G1 X73.25 Y75.87 E8.61233
G1 X74.30 Y74.73 E8.64056
G0 F1800 X75.31 Y74.71
G1 F1200 X75.35 Y90.37 E8.92518
G1 X75.33 Y94.18 E8.99438
G1 X71.83 Y92.16 E9.06789
G1 X71.32 Y92.24 E9.07725
G1 X71.07 Y92.49 E9.08369
G1 X71.03 Y92.55 E9.08500
G1 X70.64 Y93.15 E9.09806
G1 X69.67 Y94.91 E9.13447
G1 X69.63 Y95.00 E9.13630
G1 X69.54 Y95.35 E9.14285
G1 X69.73 Y95.81 E9.15185
G1 X89.71 Y107.63 E9.57358
G1 X90.12 Y107.63 E9.58101
G1 X110.31 Y95.80 E10.00608
G1 X110.50 Y95.32 E10.01556
G1 X110.39 Y94.96 E10.02230
G1 X110.34 Y94.87 E10.02422
G1 X108.67 Y92.30 E10.07984
G1 X108.15 Y92.14 E10.08968
G1 X107.80 Y92.29 E10.09652
G1 X104.63 Y94.13 E10.16316
G1 X104.61 Y91.51 E10.21072
G1 X104.66 Y74.79 E10.51439
G1 X104.22 Y74.35 E10.52570
G1 X100.98 Y74.36 E10.58456
G1 X100.54 Y74.79 E10.59579
G1 X100.41 Y96.60 E10.99201
G1 X89.89 Y102.61 E11.21218
G1 X79.58 Y96.65 E11.42850
G1 X79.46 Y74.70 E11.82716
G1 X79.03 Y74.27 E11.83840
G1 X75.75 Y74.27 E11.89786
G1 X75.31 Y74.71 E11.90915
G0 F1800 X75.78 Y74.33
G0 X79.00 Y74.33
G0 X79.40 Y74.73
G0 X81.69 Y82.82
G1 F1200 X81.47 Y83.06 E11.91515
G1 X80.46 Y84.76 E11.95098
G1 X80.41 Y84.94 E11.95432
G1 X80.39 Y85.24 E11.95977
G1 X80.58 Y85.61 E11.96741
G1 X84.52 Y88.10 E12.05201
G1 X80.85 Y90.84 E12.13533
G1 X80.61 Y91.07 E12.14121
G1 X80.50 Y91.42 E12.14802
G1 X80.54 Y91.68 E12.15272
G1 X80.58 Y91.78 E12.15469
G1 X80.72 Y92.01 E12.15968
G1 X80.89 Y92.22 E12.16461
G1 X82.10 Y93.39 E12.19516
G1 X82.65 Y93.43 E12.20503
G1 X89.60 Y88.35 E12.36147
G1 X89.61 Y87.60 E12.37521
G1 X82.49 Y82.65 E12.53260
G1 X82.11 Y82.61 E12.53947
G1 X81.83 Y82.73 E12.54512
G1 X81.69 Y82.82 E12.54805
G0 F1800 X88.64 Y82.66
G1 F1200 X89.06 Y83.09 E12.55902
G1 X90.82 Y83.16 E12.59097
G1 X99.07 Y83.22 E12.74076
G1 X99.52 Y82.73 E12.75287
G1 X99.38 Y81.03 E12.78397
G1 X99.37 Y80.29 E12.79727
G1 X98.93 Y79.86 E12.80852
G1 X89.08 Y79.86 E12.98749
G1 X88.64 Y80.30 E12.99877
G1 X88.64 Y82.66 E13.04165
G0 F1800 X89.14 Y82.45
;TYPE:WALL-OUTER
G1 F1200 X89.29 Y82.60 E13.04532
G1 X90.84 Y82.66 E13.07352
G1 X98.85 Y82.72 E13.21908
G1 X99.00 Y82.56 E13.22312
G1 X98.89 Y81.26 E13.24680
G1 X98.88 Y81.04 E13.25075
G1 X98.87 Y80.50 E13.26054
G1 X98.73 Y80.36 E13.26428
G1 X89.29 Y80.36 E13.43573
G1 X89.14 Y80.50 E13.43948
G1 X89.14 Y82.45 E13.47493
G0 F1800 X88.79 Y82.45
G0 X89.45 Y87.85
G0 X89.11 Y87.85
G1 F1200 X82.31 Y83.14 E13.62511
G1 X82.18 Y83.12 E13.62742
G1 X82.06 Y83.17 E13.62979
G1 X82.02 Y83.20 E13.63077
G1 X81.88 Y83.35 E13.63443
G1 X80.93 Y84.94 E13.66805
G1 X80.91 Y85.01 E13.66936
G1 X80.90 Y85.13 E13.67166
G1 X80.96 Y85.26 E13.67423
G1 X81.22 Y85.42 E13.67964
G1 X85.41 Y88.06 E13.76965
G1 X81.19 Y91.21 E13.86527
G1 X81.05 Y91.34 E13.86869
G1 X81.01 Y91.46 E13.87094
G1 X81.04 Y91.59 E13.87337
G1 X81.11 Y91.71 E13.87590
G1 X81.25 Y91.87 E13.87980
G1 X82.32 Y92.90 E13.90678
G1 X82.50 Y92.92 E13.91006
G1 X89.10 Y88.10 E14.05856
G1 X89.11 Y87.85 E14.06314
G0 F1800 X89.45 Y87.85
G0 X89.53 Y88.32
G0 X82.63 Y93.36
G0 X82.13 Y93.33
G0 X80.59 Y91.66
G0 X80.91 Y90.86
G0 X79.40 Y74.73
G0 X79.00 Y74.33
G0 X75.78 Y74.33
G0 X75.38 Y74.73
G0 X75.50 Y90.38
G0 X75.85 Y90.37
G1 F1200 X75.83 Y95.06 E14.14826
G1 X71.73 Y92.68 E14.23431
G1 X71.56 Y92.71 E14.23743
G1 X71.44 Y92.84 E14.24074
G1 X71.07 Y93.40 E14.25294
G1 X70.11 Y95.15 E14.28921
G1 X70.07 Y95.31 E14.29217
G1 X70.13 Y95.46 E14.29516
G1 X89.85 Y107.13 E14.71141
G1 X89.98 Y107.13 E14.71388
G1 X109.90 Y95.46 E15.13331
G1 X109.97 Y95.30 E15.13647
G1 X109.90 Y95.11 E15.14005
G1 X108.35 Y92.73 E15.19178
G1 X108.18 Y92.67 E15.19505
G1 X108.04 Y92.73 E15.19769
